X: 1
T: Glen Owen
M: 4/4
L: 1/8
R: reel
K: Dmaj
(3FGF DF ABAG | (3FGF DF Add2 | (3FGF DF ABAG |1GFEF GBAG :|2GFEF GABc ||
(3d=cB cA BG3 | Bd=cd A2Bc | (3d=cB cA BG3 | Bd=cA G4 | 
(3d=cB cA BG3 | Bdde f3e | (3d=cB cA BG3 | Bd=cA G2ag ||
fd (3ded fd (3ded | fefg (3aba g2 | fd (3ded fd (3ded | cdef gbag | 
fd (3ded fdge | fefg a4 | g3f gfed | cdef g2a2 ||
